X: 4
T:Johnnie Faa
M:C
L:1/8
C:Trad
S:Chris Duncan Workshop - Nov 97
R:Air
N:transcribed from notes given at a Scottish Fiddling workshop, November
N:1997.  The workshop was run by the Sydney Scottish Fiddlers, for more
N:information contact Trish Barker 61 2 9416 2402
N:from The Scottish Music List, Vol2 No 12
Z:Tim Barker, Nov 97
K:G
|D2 DE G3 B|E>D E<G A3 B|D3 E GB AG|E4 D4:||!
|A2 AB d3 e|dB A>G G3 B|A2 AB d3 e|B4 A4|!
|A2 AB d3 e|dB A>G A3 B|D3 E GB AG|E4 D4|
